img/svg/Twitter.svg

<svg width="16" height="16" viewBox="0 0 16 16" xmlns="http://www.w3.org/2000/svg">
<path d="M15 3.84887C14.4847 4.0675 13.9318 4.21577 13.3509 4.28196C13.9441 3.94186 14.3981 3.4024 14.6133 2.76158C14.0569 3.07654 13.4428 3.30524 12.7884 3.42922C12.2644 2.89395 11.519 2.56055 10.6923 2.56055C9.1062 2.56055 7.82018 3.79192 7.82018 5.30978C7.82018 5.52505 7.84555 5.73531 7.89455 5.93637C5.50801 5.82159 3.39178 4.72676 1.97543 3.06313C1.72784 3.46858 1.58699 3.941 1.58699 4.4453C1.58699 5.39941 2.0944 6.24127 2.86427 6.7338C2.3936 6.71873 1.95093 6.59476 1.56339 6.38869V6.42303C1.56339 7.75492 2.55371 8.86651 3.86682 9.1195C3.62624 9.18149 3.37255 9.21583 3.11009 9.21583C2.92464 9.21583 2.74529 9.19824 2.56944 9.16473C2.93511 10.2579 3.99543 11.0528 5.25171 11.0746C4.26926 11.8118 3.03048 12.2499 1.68499 12.2499C1.45317 12.2499 1.22482 12.2365 1 12.2122C2.27114 12.9937 3.78024 13.4494 5.40218 13.4494C10.6853 13.4494 13.5732 9.2594 13.5732 5.62559L13.5635 5.26959C14.1278 4.88423 14.6159 4.40007 15 3.84887Z" />
</svg>

<svg width="16" height="16" xmlns="http://www.w3.org/2000/svg"><path d="M15 3.849a5.935 5.935 0 01-1.65.433 2.786 2.786 0 001.263-1.52 5.948 5.948 0 01-1.825.667 2.924 2.924 0 00-2.096-.868C9.106 2.56 7.82 3.79 7.82 5.31c0 .215.026.425.075.626-2.387-.114-4.503-1.21-5.92-2.873a2.641 2.641 0 00-.388 1.382c0 .954.507 1.796 1.277 2.289a2.97 2.97 0 01-1.3-.345v.034c0 1.332.99 2.444 2.303 2.697a3.03 3.03 0 01-.757.096c-.185 0-.365-.018-.54-.051.365 1.093 1.425 1.888 2.682 1.91a5.926 5.926 0 01-3.567 1.175A6.37 6.37 0 011 12.212a8.382 8.382 0 004.402 1.237c5.283 0 8.171-4.19 8.171-7.823l-.01-.356A5.608 5.608 0 0015 3.849z"/></svg>
